X:2891
T:J.F. Dickie's Delight
O:england
M:4/4
L:1/8
Q:128
K:A
c3/2B/A3/2c/ d3/2A/F2|GB/G/E3/2G/ A3/2c/e2|d3/2f/a3/2g/ (3fed(3cde|f/F3/
2B3/2A/ (3GFE(3DCB,|
C3/2B,/A,3/2C/ D3/2F/A2|
W: A D E7 A D D A Bm E7
A,/CB,/A,3/2C/ D3/2F/A2|GB/G/E3/2G/ A3/2c/e2|d3/2f/a3/2f/ ea/g/(3fed|e/E
3/2c3/2B/ A2-A3/2E/|
W: A D E7 A D A D E7 A
A3/2c/e3/2a/ G3/2B/e3/2g/|F3/2A/d3/2f/ E3/2A/c/e3/2|C3/2E/A3/2c/ (3fed(3
cBA|B/F3/2B3/2A/ G/BG/(3EFG|
W: A E7 D A A D C#m Bm E7
A3/2c/e/aA/ G3/2B/e/gG/|F3/2A/d/fF/ E3/2A/c/eA/|d3/2c/d3/2f/ e/ag/(3fed|
e/E3/2c3/2B/ A2-A2|
W: A E7 D A D A D E7 A


